!!!!SEGMENT:12Wazawai_c.krn
!!!OTL:わざわゐ
!!!OPR:Eiga Banso Kyokusyu,jidai-geki,zenpen
!!!YOY:1929
!!!ONB:Daigekitou
**kern
*clefG2
*C:
*M2/4
=1
!LO:TX:a:B:t=Allegro
8aL
8b
8b
8eeJ
=2
8ff#L
16ff#L
16ff#JJ
8ff#L
16eeL
16eeJJ
=3
8eeL
8bJ
8bL
8bJ
=4
8gL
8b
8g
8gJ
=5
8eL
16f#L
16eJJ
8cL
8BJ
=6
8c#XL
8e
8f#
8aJ
=7
8bL
16eL
16aJJ
8bL
8bJ
=8
8f#L
16ff#L
16ff#JJ
16ff#LL
16ff#
16ff#
16ff#JJ
=9
8f#L
16ff#L
16ff#JJ
16ff#LL
16ff#
16ff#
16ff#JJ
=10
8f#L
16ff#L
16ff#JJ
8f#L
16ff#L
16ff#JJ
=11
8f#L
16ff#L
16ff#JJ
8f#L
8ff#J
=12
8r
16ggLL
16ff#JJ
8eeL
8ff#J
=13
8ggL
16ff#L
16eeJJ
8ff#L
8aaJ
=14
8eeL
8aa
8bb
8aaJ
=15
16bbLL
16bb
16bb
16aaJJ
8ff#L
8eeJ
=16
16ff#LL
16ff#
16ff#
16eeJJ
8ccL
8bJ
=17
8r
8eL
8e
8eJ
=18
8eL
8e
8e
8eJ
=19
8r
8eeL
8ee
8eeJ
=20
8eeL
8ee
8ee
8eeJ
=21
8eL
8ff#J
8ff#L
8ccJ
=22
8ff#L
8ccn
8b
8gJ
=23
8f#L
8e
8f#
8aJ
=24
8bL
8ee
8ff#
8eeJ
=25
16ff#LL
16ff#
16ff#
16ff#JJ
8ccL
8bJ
=26
8c#XL
16cc#XL
16cc#JJ
16cc#LL
16cc#
16cc#
16cc#JJ
=27
8c#XL
16cc#XL
16cc#JJ
16cc#LL
16cc#
16cc#
16cc#JJ
=28
8c#XL
16cc#XL
16cc#JJ
8c#L
16cc#L
16cc#JJ
=29
8c#XL
16cc#XL
16cc#JJ
8c#L
8cc#J
=30
8r
16BLL
16bJJ
16BLL
16b
16B
16bJJ
=31
16BLL
16b
16B
16bJJ
16BLL
16bJ
8BJ
=32
8r
16ggLL
16ff#J
8ffL
8eeJJ
=33
8ee-
8dd
8cc#X
8ccnJJ
=34
16bLL
16b
16b
16bJJ
16aLL
16a
16a
16aJJ
=35
16bLL
16b
16b
16bJJ
16aLL
16a
16a
16aJJ
=36
16f#LL
16b
16b
16bJJ
8bL
8f#J
=37||
*M3/8
8bL
8f#
8BJ
=38
*M2/4
16f#LL
16b
16b
16bJJ
8bL
8f#J
=39
*M3/8
8bL
8f#
8BJ
=40
*M2/4
8BL
16f#L
16f#JJ
16BLL
16f#J
8f#J
=41
16fnLL
16fJ
8eJ
16ccnLL
16ccJ
8bJ
=42
8aL
8fnJ
4e
=43
8ddL
16eeL
16eeJJ
8bL
8aJ
=44
8r
8b
8b
8r
==
*-
!!!ENC: Yukiko Yoden
!!!END: 2023/06/11
